X:1
T:Cranham, irr.
T:Cranham, irr.
T:Gustav Holst, 1906
T:Public Domain Courtesy of the Cyber Hymnal™
C:Gustav Holst, 1906
Z:Public Domain
Z:Courtesy of the Cyber Hymnal™
%%score ( 1 2 ) ( 3 4 )
L:1/8
Q:1/4=125
M:4/4
K:F
V:1 treble 
V:2 treble 
V:3 bass 
V:4 bass 
V:1
 ([FA]2 | [FA]3) [FB] [Fc]2 [CA]2 | [DG]4 [DF]4 | [DG]3 [DA] [DG]2 [CD]2 | [B,G]8 | %5
 [CA]3 [FB] [Fc]2 [CA]2 | [DG]3- [DG] [DF]4 | [FG]2 [FA]2 [EG]3 F | F8 | [FB]3 [FA] [FB]2 [_Ec]2 | %10
 [Dd]2 [Dd]2 [FA]4 | ([Fc]2 [EA]2) ([DG]2 [DF]2) | [CE]6 [CA]2 | [CA]3 [FB] [Fc]2 [CA]2 | %14
 [DG]4 [DF]4 | (G2 A2) ([EG]3 F) | F6 |] %17
V:2
 x2 | x8 | x8 | x8 | x8 | x8 | x8 | x7 F | F8 | x8 | x8 | x8 | x8 | x8 | x8 | F4 x F x2 | F6 |] %17
V:3
 ([F,C]2 | [F,C]3) [G,C] [A,C]2 F,2 | [D,A,]4 [D,A,]4 | [B,,G,]3 [C,D,] [B,,D,]2 [A,,F,]2 | %4
 ([G,,F,]4 [C,E,]4) | F,3 [G,C] [A,C]2 F,2 | [D,A,]3- [D,A,] [D,A,]4 | %7
 [B,,D]2 [B,,D]2 [C,B,]3 [F,A,] | [F,A,]8 | [D,B,]3 [F,C] [D,B,]2 [C,A,]2 | %10
 [B,,B,]2 [B,,B,]2 [D,A,]4 | ([A,,F,]2 [A,,C]2) ([B,,B,]2 [B,,A,]2) | [C,G,]6 F,2 | %13
 F,3 [G,C] [A,C]2 F,2 | [D,A,]4 [D,A,]4 | [B,,D]4 ([C,B,]3 [F,A,]) | [F,A,]6 |] %17
V:4
 x2 | x6 F,2 | x8 | x8 | x8 | F,3 F,2 x3 | x8 | x8 | x8 | x8 | x8 | x8 | x6 F,2 | F,3 F,2 x3 | x8 | %15
 x8 | x6 |] %17

